src/assets/img/logo.svg

<svg height="100" viewBox="0 0 377 409" width="70" xmlns="http://www.w3.org/2000/svg" xmlns:xlink="http://www.w3.org/1999/xlink"><defs><ellipse id="a" cx="187.727273" cy="187.714286" rx="187.727273" ry="187.714286"/><path id="b" d="m193.984848 226.212261v28.76631h46.89394c39.764502 0 72 32.235498 72 72v54.707143h-312.878788v-54.707143c0-39.764502 32.235498-72 72-72h46.893939v-28.76631c-26.9644387-12.80941-46.3472214-38.987768-49.5826751-69.969398-9.1126054-1.287956-16.12187-9.118937-16.12187-18.587019v-21.897402c0-9.301875 6.7653363-17.023621 15.6439394-18.5131684v-9.639213c0-48.3834913 39.2225697-87.6060606 87.6060607-87.6060606s87.606061 39.2225693 87.606061 87.6060606v9.639213c8.878603 1.4895474 15.643939 9.2112934 15.643939 18.5131684v21.897402c0 9.468082-7.009265 17.299063-16.12187 18.587019-3.235454 30.98163-22.618236 57.159988-49.582671 69.969396z"/><path id="c" d="m154.968805 45.4263313c-.062241.6703358-.093805 1.345965-.093805 2.0263189 0 18.549563 23.463501 33.5869549 52.407197 33.5869549s52.407197-15.0373919 52.407197-33.5869549c0-.6803539-.031564-1.3559831-.093805-2.0263189h31.343805c39.764502 0 72 32.235498 72 71.9999997v54.573669h-312.8787879v-54.573669c0-39.7645017 32.235498-71.9999997 71.9999999-71.9999997z"/><path id="d" d="m54.9529225 23.7235756c1.6553677 14.8847511 14.2525576 26.4582426 29.5470775 26.4582426 15.341766 0 27.969512-11.645105 29.562105-26.596278.128173-1.2032794-1.212757-3.1991766-2.893331-3.1991766-23.3063725 0-41.1622119 0-53.1347618 0-1.6903248 0-3.2467069 1.8480138-3.0810897 3.337212z"/><path id="e" d="m21.875 22.0300043c15.015598 0 21.875 6.9804914 21.875-3.8990442 0-10.87953568-9.7937711-18.1309601-21.875-18.1309601s-21.875 7.25142442-21.875 18.1309601c0 10.8795356 6.85940196 3.8990442 21.875 3.8990442z"/><path id="f" d="m21.875 22.0300043c15.015598 0 21.875 6.9804914 21.875-3.8990442 0-10.87953568-9.7937711-18.1309601-21.875-18.1309601s-21.875 7.25142442-21.875 18.1309601c0 10.8795356 6.85940196 3.8990442 21.875 3.8990442z"/><path id="g" d="m158.783749 153.711312c-3.934927 3.592002-8.126673 5.207409-13.424675 4.077776-.911682-.194205-4.628496-7.106009-13.859333-7.106009-9.230838 0-12.947129 6.911804-13.859333 7.106009-5.298003 1.129633-9.489749-.485774-13.424676-4.077776-7.3970141-6.753195-13.5486394-16.0656-9.8522245-26.226015 1.9264039-5.295874 5.0594908-11.109976 10.7591985-12.797621 6.086243-1.801235 14.631359-.00314 20.764677-1.233278 1.987078-.398879 4.157748-1.107648 5.612358-2.283345 1.45461 1.175697 3.625803 1.884466 5.611834 2.283345 6.133842 1.230138 14.678957-.567957 20.765201 1.233278 5.699707 1.687645 8.832794 7.501747 10.759721 12.797621 3.696415 10.160415-2.45521 19.47282-9.852748 26.226015m60.509772-113.0007857c-5.338805 13.153028-3.276947 29.5277124-4.264931 43.3345897-.802507 11.2225171-3.161551 28.043102-13.124651 35.290794-5.094839 3.706354-14.368721 9.93551-21.025892 8.197947-4.582668-1.195965-5.071654-14.342786-11.093881-19.264243-6.831057-5.581515-15.360921-8.033967-23.961393-7.655314-3.711133.163462-11.216654.124666-14.322878 2.979049-3.106223-2.854383-10.611217-2.815587-14.322351-2.979049-8.600998-.378653-17.130862 2.073799-23.9619191 7.655314-6.022227 4.921457-6.5106865 18.068278-11.0933542 19.264243-6.6571717 1.737563-15.9310535-4.491593-21.0264193-8.197947-9.9636268-7.247692-12.3216166-24.0682769-13.1251774-35.290794-.9874576-13.8068773 1.0744003-30.1815617-4.2644049-43.3345897-2.5972138 0-.8841803 25.2544138-.8841803 25.2544138v31.8736038c.049531 23.9379211 14.9989231 59.7666931 48.1446198 73.4478701 8.1062158 3.345805 26.4679744 8.779375 40.5331864 8.779375s32.426971-4.916284 40.533187-8.26209c33.145697-13.681176 48.095089-50.027234 48.145147-73.9651551v-31.8736038s1.712506-25.2544138-.884708-25.2544138"/><path id="h" d="m290.623974 115.645689c2.748091 1.546477 4.924017 17.049423 5.029313 22.977644.065864 3.658169.124837 17.608154-3.743195 16.402276-1.177681-.367147-2.97513-7.752413-3.230787-12.074772-.255656-4.322359-2.710475-19.028117-6.476859-25.794087-.860565-1.546123-3.324834-4.260853-2.260176-5.568731 1.320747-1.621768 2.603363-.680803 4.215732-.03146 1.744097.703073 6.157451 3.915925 6.465972 4.08913zm1.259052-4.649313c-1.166801 1.505178-9.134662-2.720128-12.457431-4.556162-27.908897-15.4237266-33.32631-20.3283455-77.29697-19.6882989-43.97066.6400465-74.095276 21.2464059-75.789766 23.3541529-1.178912 1.466428-2.683989 5.381896-3.921618 16.289063-1.23763 10.907167.342179 30.467982-4.137985 30.44425-3.814339-.020205-4.644178-37.207447-2.997632-51.959667.252798-2.264941 1.227098-6.3165807.521863-8.354087-.616373-1.7795811-3.631469-1.7759556-3.150184-4.7410609.547032-3.3752996 3.949416-1.6987851 5.431282-3.312631 2.806556-3.0572954-1.522958-3.7808329-2.241033-6.4553837-1.067354-3.9755716 2.017083-5.0010578 4.795903-6.2565015 3.075192-1.3880318 2.675576-.1688427 5.171377-2.8879348-3.333556-2.4440754-4.539594-5.7737979.025168-7.5601119 1.938496-.7587562 6.981976.2454951 8.500824-.8944519.39602-.2972874.552682-2.0012518.796663-2.3498135 2.425432-3.4705974 1.827035-5.9830385 1.580999-9.879368-.202376-3.1883297-.175152-6.1151087 3.641229-6.4336309 2.546652-.2123482 4.617668 1.8686637 6.899279 2.4813658 2.531242.6800319 1.580486 1.1762015 3.563669-.1890417 3.481485-2.3984982 1.112041-7.0717112 3.872883-9.859687 3.788645-3.8258921 6.272118 1.7821707 9.313923 2.2053132 6.603419.920348 4.48412-5.7877818 8.393472-8.2458411 4.672628-2.9355836 5.124636 3.5208359 8.043166 3.7507934 2.529188.1983642 7.08265-4.6830535 9.287214-5.5925251 6.541268-2.699929 9.782368 4.8974734 16.009285 3.9284407 4.518535-.7033385 5.738442-1.2777143 9.816269 1.2937699 3.958148 2.4958676 4.898632.7116253 9.380697.6758887 3.166621-.0238245 5.106145 2.6227585 7.755012 2.8988111 1.321094.1382853 2.585688-1.2383522 4.003348-1.1518592 5.062998.3071279 5.382999 6.8557376 9.405353 8.6586252 3.675129 1.6475108 7.99591-.667084 11.643303-1.0954057 8.899412-1.0446493 2.805015 7.2695575 3.056187 12.2317711 3.4933.8152098 7.038991-2.446147 10.516367-1.8458751 5.475968.9457262 3.409061 6.6221547 2.139845 10.4490826 3.794295-.0683657 13.69891-4.2811458 16.157215 1.1068 1.267675 2.7781353-1.685783 6.4869769-1.6375 9.3112073.067801 3.9755716 2.988386 7.2648962 4.021839 11.0276018 1.394546 5.079264 3.381966 18.6932172-.113515 23.2024012z"/><mask id="i" fill="#fff"><use fill="#fff" fill-rule="evenodd" xlink:href="#a"/></mask><mask id="j" fill="#fff"><path d="m18.7727273 250.285714h-18.7727273v-250.285714h413v250.285714h-18.772727c0 103.671738-84.048363 187.714286-187.727273 187.714286s-187.7272727-84.042548-187.7272727-187.714286z" fill="#fff" fill-rule="evenodd"/></mask><mask id="k" fill="#fff"><use fill="#fff" fill-rule="evenodd" xlink:href="#b"/></mask><mask id="l" fill="#fff"><use fill="#fff" fill-rule="evenodd" xlink:href="#c"/></mask><mask id="m" fill="#fff"><use fill="#fff" fill-rule="evenodd" xlink:href="#d"/></mask><mask id="n" fill="#fff"><use fill="#fff" fill-rule="evenodd" xlink:href="#e"/></mask><mask id="o" fill="#fff"><use fill="#fff" fill-rule="evenodd" xlink:href="#f"/></mask><mask id="p" fill="#fff"><path d="m0 0h413v438h-413z" fill="#fff" fill-rule="evenodd"/></mask><mask id="q" fill="#fff"><use fill="#fff" fill-rule="evenodd" xlink:href="#g"/></mask><mask id="r" fill="#fff"><use fill="#fff" fill-rule="evenodd" xlink:href="#h"/></mask></defs><g fill="none" fill-rule="evenodd" transform="translate(-18 -29)"><g transform="translate(18.772727 62.571429)"><use fill="#e6e6e6" xlink:href="#a"/><g fill="#ff488e" mask="url(#i)"><path d="m0 0h375v375h-375z"/></g></g><g mask="url(#j)"><g transform="translate(50.060606 56.314286)"><use fill="#d0c6ac" xlink:href="#b"/><g fill="#d08b5b" mask="url(#k)"><path d="m0 0h413v382h-413z" transform="translate(-50.060606)"/></g><path d="m244.045455 147.036797v12.514285c0 48.383492-39.22257 87.606061-87.606061 87.606061s-87.6060607-39.222569-87.6060607-87.606061v-12.514285c0 48.383491 39.2225697 87.60606 87.6060607 87.60606s87.606061-39.222569 87.606061-87.60606z" fill="#000" fill-opacity=".1" mask="url(#k)"/></g><g fill-rule="evenodd" transform="translate(0 265.928571)"><use fill="#e6e6e6" xlink:href="#c"/><g fill="#3c4f5c" mask="url(#l)"><path d="m0 0h413v172h-413z"/></g><g fill="#000" fill-opacity=".16" mask="url(#l)" opacity=".6"><ellipse cx="63.357955" cy="43.543559" rx="62.004918" ry="42.083439" transform="translate(143.924242 6.254545)"/></g></g><g transform="translate(118.893939 128.271429)"><g fill-rule="evenodd" transform="translate(3.128788 81.342857)"><use fill="#000" fill-opacity=".7" xlink:href="#d"/><rect fill="#fff" height="25.090909" mask="url(#m)" rx="5" width="48.509259" x="61.027778" y="3.136364"/><g fill="#ff4f6d" mask="url(#m)"><g transform="translate(59.462963 37.636364)"><ellipse cx="17.212963" cy="17.25" rx="17.212963" ry="17.25"/><ellipse cx="32.861111" cy="17.25" rx="17.212963" ry="17.25"/></g></g></g><path d="m25.1428571 12.6666667c0 6.9956068 8.4426305 12.6666666 18.8571429 12.6666666s18.8571429-5.6710598 18.8571429-12.6666666" fill="#000" fill-opacity=".16" transform="translate(43.80303 62.571429)"/><g transform="translate(25 32.90065)"><use fill="#fff" xlink:href="#e"/><ellipse cx="21.875" cy="15.681818" fill="#000" fill-opacity=".7" mask="url(#n)" rx="9.375" ry="9.409091"/></g><g transform="translate(106.25 32.90065)"><use fill="#fff" xlink:href="#f"/><ellipse cx="21.875" cy="15.681818" fill="#000" fill-opacity=".7" mask="url(#o)" rx="9.375" ry="9.409091"/></g><g fill="#000" fill-opacity=".6"><path d="m40.6860835 9.83269576c-9.0024032 1.22445264-23.0408784 9.17561344-21.8669272 18.37883854.0385751.3012184.4882347.3950981.6822619.1435808 3.8851508-5.0479178 33.9248276-12.463914 44.8646245-10.9151495 1.0012266.1420746 1.6621858-.9051612.9793481-1.5588051-5.850756-5.5976413-16.5947984-7.15343411-24.6593073-6.04846474" transform="matrix(.9961947 .08715574 -.08715574 .9961947 1.816495 -3.604582)"/><path d="m132.873583 9.83269576c-9.002403 1.22445264-23.040878 9.17561344-21.866927 18.37883854.038575.3012184.488235.3950981.682262.1435808 3.885151-5.0479178 33.924828-12.463914 44.864625-10.9151495 1.001226.1420746 1.662186-.9051612.979348-1.5588051-5.850756-5.5976413-16.594799-7.15343411-24.659308-6.04846474" transform="matrix(-.9961947 .08715574 .08715574 .9961947 266.582703 -11.639252)"/></g></g><g fill-rule="evenodd" mask="url(#p)"><g transform="translate(75.067185 112.628571)"><use fill="#331b0c" xlink:href="#g"/><g fill="#4a312c" mask="url(#q)"><path d="m0 0h263v238h-263z"/></g></g><g transform="translate(-.000484)"><use fill="#2e3257" xlink:href="#h"/><g fill="#2c1b18" mask="url(#r)"><path d="m0 0h413v438h-413z"/></g></g></g></g></g></svg>

<?xml version="1.0" encoding="UTF-8"?><svg width="70px" height="100px" viewBox="0 0 377 409" version="1.1" xmlns="http://www.w3.org/2000/svg" xmlns:xlink="http://www.w3.org/1999/xlink"><!-- Generator: Sketch 51.3 (57544) - http://www.bohemiancoding.com/sketch --><title>santi</title><desc>Created with Sketch.</desc><defs><ellipse id="path-1" cx="187.727273" cy="187.714286" rx="187.727273" ry="187.714286"></ellipse><path d="M18.7727273,250.285714 L-3.19744231e-14,250.285714 L-3.19744231e-14,-1.42108547e-14 L413,-1.42108547e-14 L413,250.285714 L394.227273,250.285714 C394.227273,353.957452 310.17891,438 206.5,438 C102.82109,438 18.7727273,353.957452 18.7727273,250.285714 Z" id="path-3"></path><path d="M193.984848,226.212261 L193.984848,254.978571 L240.878788,254.978571 C280.64329,254.978571 312.878788,287.214069 312.878788,326.978571 L312.878788,381.685714 L0,381.685714 L0,326.978571 C-4.86974701e-15,287.214069 32.235498,254.978571 72,254.978571 L118.893939,254.978571 L118.893939,226.212261 C91.9295003,213.402851 72.5467176,187.224493 69.3112639,156.242863 C60.1986585,154.954907 53.1893939,147.123926 53.1893939,137.655844 L53.1893939,115.758442 C53.1893939,106.456567 59.9547302,98.734821 68.8333333,97.2452736 L68.8333333,87.6060606 C68.8333333,39.2225693 108.055903,8.88790316e-15 156.439394,0 C204.822885,-8.88790316e-15 244.045455,39.2225693 244.045455,87.6060606 L244.045455,97.2452736 C252.924058,98.734821 259.689394,106.456567 259.689394,115.758442 L259.689394,137.655844 C259.689394,147.123926 252.680129,154.954907 243.567524,156.242863 C240.33207,187.224493 220.949288,213.402851 193.984853,226.212259 Z" id="path-5"></path><path d="M154.968805,45.4263313 C154.906564,46.0966671 154.875,46.7722963 154.875,47.4526502 C154.875,66.0022132 178.338501,81.0396051 207.282197,81.0396051 C236.225893,81.0396051 259.689394,66.0022132 259.689394,47.4526502 C259.689394,46.7722963 259.65783,46.0966671 259.595589,45.4263313 L290.939394,45.4263313 C330.703896,45.4263313 362.939394,77.6618293 362.939394,117.426331 L362.939394,172 L50.0606061,172 L50.0606061,117.426331 C50.0606061,77.6618293 82.2961041,45.4263313 122.060606,45.4263313 L154.968805,45.4263313 Z" id="path-7"></path><path d="M54.9529225,23.7235756 C56.6082902,38.6083267 69.2054801,50.1818182 84.5,50.1818182 C99.841766,50.1818182 112.469512,38.5367132 114.062105,23.5855402 C114.190278,22.3822608 112.849348,20.3863636 111.168774,20.3863636 C87.8624015,20.3863636 70.0065621,20.3863636 58.0340122,20.3863636 C56.3436874,20.3863636 54.7873053,22.2343774 54.9529225,23.7235756 Z" id="path-9"></path><path d="M21.875,22.0300043 C36.890598,22.0300043 43.75,29.0104957 43.75,18.1309601 C43.75,7.25142442 33.9562289,0 21.875,0 C9.7937711,0 0,7.25142442 0,18.1309601 C0,29.0104957 6.85940196,22.0300043 21.875,22.0300043 Z" id="path-11"></path><path d="M21.875,22.0300043 C36.890598,22.0300043 43.75,29.0104957 43.75,18.1309601 C43.75,7.25142442 33.9562289,0 21.875,0 C9.7937711,0 0,7.25142442 0,18.1309601 C0,29.0104957 6.85940196,22.0300043 21.875,22.0300043 Z" id="path-13"></path><rect id="path-15" x="0" y="0" width="413" height="438"></rect><path d="M158.783749,153.711312 C154.848822,157.303314 150.657076,158.918721 145.359074,157.789088 C144.447392,157.594883 140.730578,150.683079 131.499741,150.683079 C122.268903,150.683079 118.552612,157.594883 117.640408,157.789088 C112.342405,158.918721 108.150659,157.303314 104.215732,153.711312 C96.8187179,146.958117 90.6670926,137.645712 94.3635075,127.485297 C96.2899114,122.189423 99.4229983,116.375321 105.122706,114.687676 C111.208949,112.886441 119.754065,114.684536 125.887383,113.454398 C127.874461,113.055519 130.045131,112.34675 131.499741,111.171053 C132.954351,112.34675 135.125544,113.055519 137.111575,113.454398 C143.245417,114.684536 151.790532,112.886441 157.876776,114.687676 C163.576483,116.375321 166.70957,122.189423 168.636497,127.485297 C172.332912,137.645712 166.181287,146.958117 158.783749,153.711312 M219.293521,40.7105263 C213.954716,53.8635543 216.016574,70.2382387 215.02859,84.045116 C214.226083,95.2676331 211.867039,112.088218 201.903939,119.33591 C196.8091,123.042264 187.535218,129.27142 180.878047,127.533857 C176.295379,126.337892 175.806393,113.191071 169.784166,108.269614 C162.953109,102.688099 154.423245,100.235647 145.822773,100.6143 C142.11164,100.777762 134.606119,100.738966 131.499895,103.593349 C128.393672,100.738966 120.888678,100.777762 117.177544,100.6143 C108.576546,100.235647 100.046682,102.688099 93.2156249,108.269614 C87.1933979,113.191071 86.7049384,126.337892 82.1222707,127.533857 C75.465099,129.27142 66.1912172,123.042264 61.0958514,119.33591 C51.1322246,112.088218 48.7742348,95.2676331 47.970674,84.045116 C46.9832164,70.2382387 49.0450743,53.8635543 43.7062691,40.7105263 C41.1090553,40.7105263 42.8220888,65.9649401 42.8220888,65.9649401 L42.8220888,97.8385439 C42.8716198,121.776465 57.8210119,157.605237 90.9667086,171.286414 C99.0729244,174.632219 117.434683,180.065789 131.499895,180.065789 C145.565107,180.065789 163.926866,175.149505 172.033082,171.803699 C205.178779,158.122523 220.128171,121.776465 220.178229,97.8385439 L220.178229,65.9649401 C220.178229,65.9649401 221.890735,40.7105263 219.293521,40.7105263" id="path-17"></path><path d="M290.623974,115.645689 C293.372065,117.192166 295.547991,132.695112 295.653287,138.623333 C295.719151,142.281502 295.778124,156.231487 291.910092,155.025609 C290.732411,154.658462 288.934962,147.273196 288.679305,142.950837 C288.423649,138.628478 285.96883,123.92272 282.202446,117.15675 C281.341881,115.610627 278.877612,112.895897 279.94227,111.588019 C281.263017,109.966251 282.545633,110.907216 284.158002,111.556559 C285.902099,112.259632 290.315453,115.472484 290.623974,115.645689 Z M291.883026,110.996376 C290.716225,112.501554 282.748364,108.276248 279.425595,106.440214 C251.516698,91.0164874 246.099285,86.1118685 202.128625,86.7519151 C158.157965,87.3919616 128.033349,107.998321 126.338859,110.106068 C125.159947,111.572496 123.65487,115.487964 122.417241,126.395131 C121.179611,137.302298 122.75942,156.863113 118.279256,156.839381 C114.464917,156.819176 113.635078,119.631934 115.281624,104.879714 C115.534422,102.614773 116.508722,98.5631333 115.803487,96.525627 C115.187114,94.7460459 112.172018,94.7496714 112.653303,91.7845661 C113.200335,88.4092665 116.602719,90.085781 118.084585,88.4719351 C120.891141,85.4146397 116.561627,84.6911022 115.843552,82.0165514 C114.776198,78.0409798 117.860635,77.0154936 120.639455,75.7600499 C123.714647,74.3720181 123.315031,75.5912072 125.810832,72.8721151 C122.477276,70.4280397 121.271238,67.0983172 125.836,65.3120032 C127.774496,64.553247 132.817976,65.5574983 134.336824,64.4175513 C134.732844,64.1202639 134.889506,62.4162995 135.133487,62.0677378 C137.558919,58.5971404 136.960522,56.0846993 136.714486,52.1883698 C136.51211,49.0000401 136.539334,46.0732611 140.355715,45.7547389 C142.902367,45.5423907 144.973383,47.6234026 147.254994,48.2361047 C149.786236,48.9161366 148.83548,49.4123062 150.818663,48.047063 C154.300148,45.6485648 151.930704,40.9753518 154.691546,38.187376 C158.480191,34.3614839 160.963664,39.9695467 164.005469,40.3926892 C170.608888,41.3130372 168.489589,34.6049074 172.398941,32.1468481 C177.071569,29.2112645 177.523577,35.667684 180.442107,35.8976415 C182.971295,36.0960057 187.524757,31.214588 189.729321,30.3051164 C196.270589,27.6051874 199.511689,35.2025898 205.738606,34.2335571 C210.257141,33.5302186 211.477048,32.9558428 215.554875,35.527327 C219.513023,38.0231946 220.453507,36.2389523 224.935572,36.2032157 C228.102193,36.1793912 230.041717,38.8259742 232.690584,39.1020268 C234.011678,39.2403121 235.276272,37.8636746 236.693932,37.9501676 C241.75693,38.2572955 242.076931,44.8059052 246.099285,46.6087928 C249.774414,48.2563036 254.095195,45.9417088 257.742588,45.5133871 C266.642,44.4687378 260.547603,52.7829446 260.798775,57.7451582 C264.292075,58.560368 267.837766,55.2990112 271.315142,55.8992831 C276.79111,56.8450093 274.724203,62.5214378 273.454987,66.3483657 C277.249282,66.28 287.153897,62.0672199 289.612202,67.4551657 C290.879877,70.233301 287.926419,73.9421426 287.974702,76.766373 C288.042503,80.7419446 290.963088,84.0312692 291.996541,87.7939748 C293.391087,92.8732388 295.378507,106.487192 291.883026,110.996376 Z" id="path-19"></path></defs><g id="Page-1" stroke="none" stroke-width="1" fill="none" fill-rule="evenodd"><g id="Avataaar/Circle" transform="translate(-18.000000, -29.000000)"><g id="Circle" stroke-width="1" fill-rule="evenodd" transform="translate(18.772727, 62.571429)"><mask id="mask-2" fill="white"><use xlink:href="#path-1"></use></mask><use id="Circle-Background" fill="#E6E6E6" xlink:href="#path-1"></use><g id="Color/Palette/Pink" mask="url(#mask-2)" fill="#FF488E"><rect id="🖍Color" x="0" y="0" width="375" height="375"></rect></g></g><mask id="mask-4" fill="white"><use xlink:href="#path-3"></use></mask><g id="Mask"></g><g id="Avataaar" stroke-width="1" fill-rule="evenodd" mask="url(#mask-4)"><g id="Body" transform="translate(50.060606, 56.314286)"><mask id="mask-6" fill="white"><use xlink:href="#path-5"></use></mask><use fill="#D0C6AC" xlink:href="#path-5"></use><g id="Skin/👶🏽-03-Brown" mask="url(#mask-6)" fill="#D08B5B"><g transform="translate(-50.060606, 0.000000)" id="Color"><rect x="0" y="0" width="413" height="382"></rect></g></g><path d="M244.045455,147.036797 L244.045455,159.551082 C244.045455,207.934574 204.822885,247.157143 156.439394,247.157143 C108.055903,247.157143 68.8333333,207.934574 68.8333333,159.551082 L68.8333333,147.036797 C68.8333333,195.420288 108.055903,234.642857 156.439394,234.642857 C204.822885,234.642857 244.045455,195.420288 244.045455,147.036797 Z" id="Neck-Shadow" fill-opacity="0.100000001" fill="#000000" mask="url(#mask-6)"></path></g><g id="Clothing/Shirt-Crew-Neck" transform="translate(0.000000, 265.928571)"><mask id="mask-8" fill="white"><use xlink:href="#path-7"></use></mask><use id="Clothes" fill="#E6E6E6" fill-rule="evenodd" xlink:href="#path-7"></use><g id="Color/Palette/Heather" mask="url(#mask-8)" fill="#3C4F5C" fill-rule="evenodd"><rect id="🖍Color" x="0" y="0" width="413" height="172"></rect></g><g id="Shadowy" opacity="0.599999964" stroke-width="1" fill-rule="evenodd" mask="url(#mask-8)" fill="#000000" fill-opacity="0.16"><g transform="translate(143.924242, 6.254545)" id="Hola-👋🏼"><ellipse cx="63.3579545" cy="43.5435593" rx="62.0049176" ry="42.0834389"></ellipse></g></g></g><g id="Face" transform="translate(118.893939, 128.271429)"><g id="Mouth/Smile" transform="translate(3.128788, 81.342857)"><mask id="mask-10" fill="white"><use xlink:href="#path-9"></use></mask><use id="Mouth" fill-opacity="0.699999988" fill="#000000" fill-rule="evenodd" xlink:href="#path-9"></use><rect id="Teeth" fill="#FFFFFF" fill-rule="evenodd" mask="url(#mask-10)" x="61.0277778" y="3.13636364" width="48.5092593" height="25.0909091" rx="5"></rect><g id="Tongue" stroke-width="1" fill-rule="evenodd" mask="url(#mask-10)" fill="#FF4F6D"><g transform="translate(59.462963, 37.636364)"><ellipse cx="17.212963" cy="17.25" rx="17.212963" ry="17.25"></ellipse><ellipse cx="32.8611111" cy="17.25" rx="17.212963" ry="17.25"></ellipse></g></g></g><g id="Nose/Default" transform="translate(43.803030, 62.571429)" fill="#000000" fill-opacity="0.16"><path d="M25.1428571,12.6666667 C25.1428571,19.6622735 33.5854876,25.3333333 44,25.3333333 C54.4145124,25.3333333 62.8571429,19.6622735 62.8571429,12.6666667" id="Nose"></path></g><g id="Eyes/Squint-😊" transform="translate(0.000000, 12.514286)"><g id="Eye" transform="translate(25.000000, 20.386364)"><mask id="mask-12" fill="white"><use xlink:href="#path-11"></use></mask><use id="The-white-stuff" fill="#FFFFFF" xlink:href="#path-11"></use><ellipse fill-opacity="0.699999988" fill="#000000" mask="url(#mask-12)" cx="21.875" cy="15.6818182" rx="9.375" ry="9.40909091"></ellipse></g><g id="Eye" transform="translate(106.250000, 20.386364)"><mask id="mask-14" fill="white"><use xlink:href="#path-13"></use></mask><use id="Eyeball-Mask" fill="#FFFFFF" xlink:href="#path-13"></use><ellipse fill-opacity="0.699999988" fill="#000000" mask="url(#mask-14)" cx="21.875" cy="15.6818182" rx="9.375" ry="9.40909091"></ellipse></g></g><g id="Eyebrow/Natural/Default-Natural" fill="#000000" fill-opacity="0.599999964"><path d="M40.6860835,9.83269576 C31.6836803,11.0571484 17.6452051,19.0083092 18.8191563,28.2115343 C18.8577314,28.5127527 19.307391,28.6066324 19.5014182,28.3551151 C23.386569,23.3071973 53.4262458,15.8912011 64.3660427,17.4399656 C65.3672693,17.5820402 66.0282285,16.5348044 65.3453908,15.8811605 C59.4946348,10.2835192 48.7505924,8.72772639 40.6860835,9.83269576" id="Eyebrow" transform="translate(42.187500, 19.000000) rotate(5.000000) translate(-42.187500, -19.000000) "></path><path d="M132.873583,9.83269576 C123.87118,11.0571484 109.832705,19.0083092 111.006656,28.2115343 C111.045231,28.5127527 111.494891,28.6066324 111.688918,28.3551151 C115.574069,23.3071973 145.613746,15.8912011 156.553543,17.4399656 C157.554769,17.5820402 158.215729,16.5348044 157.532891,15.8811605 C151.682135,10.2835192 140.938092,8.72772639 132.873583,9.83269576" id="Eyebrow" transform="translate(134.375000, 19.000000) scale(-1, 1) rotate(5.000000) translate(-134.375000, -19.000000) "></path></g></g><g id="Top"><mask id="mask-16" fill="white"><use xlink:href="#path-15"></use></mask><g id="Mask"></g><g id="Top/Short-Hair/Dreads-01" mask="url(#mask-16)"><g transform="translate(-1.564394, 0.000000)"><g id="Facial-Hair/Beard-Light" transform="translate(76.631579, 112.628571)"><mask id="mask-18" fill="white"><use xlink:href="#path-17"></use></mask><use id="Lite-Beard" fill="#331B0C" fill-rule="evenodd" xlink:href="#path-17"></use><g id="Color/Hair/Brown-Dark" mask="url(#mask-18)" fill="#4A312C" fill-rule="evenodd"><rect id="Color" x="0" y="0" width="263" height="238"></rect></g></g><g id="Hair" stroke-width="1" fill-rule="evenodd" transform="translate(1.563910, 0.000000)"><mask id="mask-20" fill="white"><use xlink:href="#path-19"></use></mask><use id="Dreads-With-Cut" fill="#2E3257" xlink:href="#path-19"></use><g id="Color/Hair/Black" mask="url(#mask-20)" fill="#2C1B18"><rect id="Color" x="0" y="0" width="413" height="438"></rect></g></g><g id="Top/_Resources/Blank" transform="translate(96.962406, 132.964286)"></g></g></g></g></g></g></g></svg>
